X: 1
T: Lady Charlotte Anne's Wedding March
C: Bill Clement
R: march, shottish
Z: 2010 John Chambers <jc:trillian.mit.edu>
S: image from Atsuko Clement
M: 4/4
L: 1/8
K: Amix
 e | "A"A>B c<e c2 B<A | "A"A>B c<e a4 \
|1,3 "D"f>e e<f "A"c2 B<A | "A"f>e ec "E7"B3 \
:|2,4 "D"f>e e<f "A"e>A c<A | "E7"c<e Bc "A"A3 :|
|: e | "D"f>e f<a "A"f2 e<c | "D"f>e ef "A"c4 \
|1,3 "A"A>B c<e f>e ec | "A"c<e ec "E7"B3 \
:|2,4 "A"A>B c<e f>e cA | "E7"c<e Bc "A"A3 :|
|: e | "A"A>B c<e c2 AB | "A"A>B c<e a4 \
|1,3 "D"f2 Af "A"e2 Ac | "A"c<e ec "E7"B3 \
:|2,4 "D"f2 Af "A"e2 Ac | "E7"c<e Bc "A"A3 :|
|: e | "A"f>a ae c<A c2 | "A"c<e ec e4 \
|1,3 "A"A2 AB c2 Ac | "A"c<e e>c "E7"B3 \
:|2,4 "A"A2 AB c2 Ac | "E7"c<e Bc "A"A3 :|
